!!!OTL: 622. Mein Maechen.
!!!ARE: Europa, Mitteleuropa, Deutschland, Sundgau
!!!SCT: E0622
!!!TXL: @@DE
!!!YEM: Copyright 1995, estate of Helmut Schaffrath.
**kern	**text
*ICvox	*
*M2/4	*
*k[f#]	*
*G:	*
=1	=1
!LO:TX:a:t=Ruhig.	!
!LO:TX:a:t=Weckerlin, Elſ. VL. III210.	!
{4.g	Hold
8a	und
=2	=2
4g	Sitt-
8aL	-ſam-
8bJ	.
=3	=3
[4b	-keit,
8b]	.
8r}	.
=4	=4
{(4b	Lieb
8dd)	.
8dd	und
=5	=5
8.ddL	Ʒärt-
16ccJ	.
8.ccL	-lich-
16bJ	.
=6	=6
4b	-keit
4r}	.
=7	=7
{8gL	hat
8bJ	.
4b/	mein
=8	=8
8bL	Mäd-
8ddJ	.
4dd	-chen
=9	=9
(4dd	nur.
8b)	.
8r	.
=10	=10
(4dd	(nur),
8b)	.
8r}	.
=11	=11
{8aL	hat
8cc	.
8eeJ	.
8dd	mein
=12	=12
4cc	Mäd-
8.aL	-chen
16bJ	.
=13	=13
[4b	nur.
8b]	.
8r}	.
=14	=14
{8gL	hat
8bJ	.
4b/	mein
=15	=15
8bL	Mäd-
8ddJ	.
4dd	-chen
=16	=16
(4dd	nur.
8b)	.
8r	.
=17	=17
(4dd	(nur),
8b)	.
8r}	.
=18	=18
{8aL	hat
8cc	.
8eeJ	.
8dd	mein
=19	=19
4cc	Mäd-
8.aL	-chen
16bJ	.
=20	=20
[4b	nur.
8b]	.
8r}	.
==	==
!!!AGN: Liebes - Lied
!!!ONB: ESAC (Essen Associative Code) Database: ERK2
!!!AMT: simple duple
!!!AIN: vox
!!!EED: Helmut Schaffrath
!!!EEV: 1.0
!!!GTL: Liebeslieder [Neuere (aus dem 18. bis 19. Jahrh.) - Liebeslust]
!!!URL-scan: https://rosdok.uni-rostock.de/mcrviewer/recordIdentifier/rosdok_ppn745177662/iview2/phys_0440.iview2?x=193.8995864193107&y=308.46280001383275&scale=0.7029437510502773&rotation=0&layout=singlePageLayout
!!!ENC: Anna Maria Matuszewska
!!!EEV: 2024/12/12
*-	*-
